images/28231.svg

<?xml version="1.0" encoding="UTF-8"?>
<svg xmlns="http://www.w3.org/2000/svg" xmlns:xlink="http://www.w3.org/1999/xlink" width="300pt" height="300pt" viewBox="0 0 300 300" version="1.1">
<defs>
<g>
<symbol overflow="visible" id="glyph0-0">
<path style="stroke:none;" d="M 0.546875 1.9375 L 0.546875 -7.75 L 6.046875 -7.75 L 6.046875 1.9375 Z M 1.171875 1.328125 L 5.4375 1.328125 L 5.4375 -7.140625 L 1.171875 -7.140625 Z M 1.171875 1.328125 "/>
</symbol>
<symbol overflow="visible" id="glyph0-1">
<path style="stroke:none;" d="M 4.328125 -7.28125 C 3.546875 -7.28125 2.921875 -6.984375 2.453125 -6.390625 C 1.992188 -5.804688 1.765625 -5.007812 1.765625 -4 C 1.765625 -2.988281 1.992188 -2.1875 2.453125 -1.59375 C 2.921875 -1.007812 3.546875 -0.71875 4.328125 -0.71875 C 5.117188 -0.71875 5.742188 -1.007812 6.203125 -1.59375 C 6.660156 -2.1875 6.890625 -2.988281 6.890625 -4 C 6.890625 -5.007812 6.660156 -5.804688 6.203125 -6.390625 C 5.742188 -6.984375 5.117188 -7.28125 4.328125 -7.28125 Z M 4.328125 -8.171875 C 5.453125 -8.171875 6.351562 -7.789062 7.03125 -7.03125 C 7.707031 -6.28125 8.046875 -5.269531 8.046875 -4 C 8.046875 -2.738281 7.707031 -1.726562 7.03125 -0.96875 C 6.351562 -0.21875 5.453125 0.15625 4.328125 0.15625 C 3.203125 0.15625 2.300781 -0.21875 1.625 -0.96875 C 0.957031 -1.71875 0.625 -2.726562 0.625 -4 C 0.625 -5.269531 0.957031 -6.28125 1.625 -7.03125 C 2.300781 -7.789062 3.203125 -8.171875 4.328125 -8.171875 Z M 4.328125 -8.171875 "/>
</symbol>
<symbol overflow="visible" id="glyph0-2">
<path style="stroke:none;" d="M 1.078125 -8.015625 L 2.546875 -8.015625 L 6.09375 -1.3125 L 6.09375 -8.015625 L 7.15625 -8.015625 L 7.15625 0 L 5.6875 0 L 2.125 -6.703125 L 2.125 0 L 1.078125 0 Z M 1.078125 -8.015625 "/>
</symbol>
</g>
</defs>
<g id="surface15965">
<rect x="0" y="0" width="300" height="300" style="fill:rgb(100%,100%,100%);fill-opacity:1;stroke:none;"/>
<path style="fill:none;stroke-width:1.2;stroke-linecap:butt;stroke-linejoin:miter;stroke:rgb(100%,0%,0%);stroke-opacity:1;stroke-miterlimit:10;" d="M 34.769531 131.976562 L 48 134.015625 "/>
<path style="fill:none;stroke-width:1.2;stroke-linecap:butt;stroke-linejoin:miter;stroke:rgb(0%,0%,0%);stroke-opacity:1;stroke-miterlimit:10;" d="M 48 134.015625 L 61.230469 136.054688 "/>
<path style="fill:none;stroke-width:1.2;stroke-linecap:butt;stroke-linejoin:miter;stroke:rgb(100%,0%,0%);stroke-opacity:1;stroke-miterlimit:10;" d="M 35.730469 125.753906 L 48.960938 127.789062 "/>
<path style="fill:none;stroke-width:1.2;stroke-linecap:butt;stroke-linejoin:miter;stroke:rgb(0%,0%,0%);stroke-opacity:1;stroke-miterlimit:10;" d="M 48.960938 127.789062 L 62.1875 129.828125 "/>
<path style=" stroke:none;fill-rule:nonzero;fill:rgb(100%,100%,100%);fill-opacity:1;" d="M 26.25 122.367188 L 35.25 122.367188 L 35.25 135.367188 L 26.25 135.367188 Z M 26.25 122.367188 "/>
<g style="fill:rgb(100%,0%,0%);fill-opacity:1;">
  <use xlink:href="#glyph0-1" x="26.25" y="132.268555"/>
</g>
<path style="fill:none;stroke-width:1.2;stroke-linecap:butt;stroke-linejoin:miter;stroke:rgb(0%,0%,0%);stroke-opacity:1;stroke-miterlimit:10;" d="M 61.710938 132.941406 L 67.835938 144.84375 "/>
<path style="fill:none;stroke-width:1.2;stroke-linecap:butt;stroke-linejoin:miter;stroke:rgb(0%,0%,100%);stroke-opacity:1;stroke-miterlimit:10;" d="M 67.835938 144.84375 L 73.964844 156.742188 "/>
<path style="fill:none;stroke-width:1.2;stroke-linecap:butt;stroke-linejoin:miter;stroke:rgb(0%,0%,100%);stroke-opacity:1;stroke-miterlimit:10;" d="M 80.558594 113.929688 L 71.136719 123.4375 "/>
<path style="fill:none;stroke-width:1.2;stroke-linecap:butt;stroke-linejoin:miter;stroke:rgb(0%,0%,0%);stroke-opacity:1;stroke-miterlimit:10;" d="M 71.136719 123.4375 L 61.710938 132.941406 "/>
<path style="fill:none;stroke-width:1.2;stroke-linecap:butt;stroke-linejoin:miter;stroke:rgb(0%,0%,100%);stroke-opacity:1;stroke-miterlimit:10;" d="M 73.964844 156.742188 L 87.175781 154.59375 "/>
<path style="fill:none;stroke-width:1.2;stroke-linecap:butt;stroke-linejoin:miter;stroke:rgb(0%,0%,0%);stroke-opacity:1;stroke-miterlimit:10;" d="M 87.175781 154.59375 L 100.390625 152.445312 "/>
<path style="fill:none;stroke-width:1.2;stroke-linecap:butt;stroke-linejoin:miter;stroke:rgb(0%,0%,100%);stroke-opacity:1;stroke-miterlimit:10;" d="M 73.964844 156.742188 L 67.9375 168.695312 "/>
<path style="fill:none;stroke-width:1.2;stroke-linecap:butt;stroke-linejoin:miter;stroke:rgb(0%,0%,0%);stroke-opacity:1;stroke-miterlimit:10;" d="M 67.9375 168.695312 L 61.910156 180.648438 "/>
<path style=" stroke:none;fill-rule:nonzero;fill:rgb(100%,100%,100%);fill-opacity:1;" d="M 69.964844 150.242188 L 77.964844 150.242188 L 77.964844 163.242188 L 69.964844 163.242188 Z M 69.964844 150.242188 "/>
<g style="fill:rgb(0%,0%,100%);fill-opacity:1;">
  <use xlink:href="#glyph0-2" x="69.964844" y="160.143555"/>
</g>
<path style="fill:none;stroke-width:1.2;stroke-linecap:butt;stroke-linejoin:miter;stroke:rgb(0%,0%,0%);stroke-opacity:1;stroke-miterlimit:10;" d="M 100.390625 152.445312 L 121.265625 169.203125 "/>
<path style="fill:none;stroke-width:1.2;stroke-linecap:butt;stroke-linejoin:miter;stroke:rgb(0%,0%,0%);stroke-opacity:1;stroke-miterlimit:10;" d="M 106.421875 149.207031 L 123.121094 162.617188 "/>
<path style="fill:none;stroke-width:1.2;stroke-linecap:butt;stroke-linejoin:miter;stroke:rgb(0%,0%,0%);stroke-opacity:1;stroke-miterlimit:10;" d="M 104.464844 125.984375 L 100.390625 152.445312 "/>
<path style="fill:none;stroke-width:1.2;stroke-linecap:butt;stroke-linejoin:miter;stroke:rgb(0%,0%,0%);stroke-opacity:1;stroke-miterlimit:10;" d="M 121.265625 169.203125 L 146.21875 159.503906 "/>
<path style="fill:none;stroke-width:1.2;stroke-linecap:butt;stroke-linejoin:miter;stroke:rgb(0%,0%,0%);stroke-opacity:1;stroke-miterlimit:10;" d="M 146.21875 159.503906 L 150.292969 133.042969 "/>
<path style="fill:none;stroke-width:1.2;stroke-linecap:butt;stroke-linejoin:miter;stroke:rgb(0%,0%,0%);stroke-opacity:1;stroke-miterlimit:10;" d="M 140.398438 155.898438 L 143.660156 134.730469 "/>
<path style="fill:none;stroke-width:1.2;stroke-linecap:butt;stroke-linejoin:miter;stroke:rgb(0%,0%,0%);stroke-opacity:1;stroke-miterlimit:10;" d="M 146.21875 159.503906 L 167.09375 176.265625 "/>
<path style="fill:none;stroke-width:1.2;stroke-linecap:butt;stroke-linejoin:miter;stroke:rgb(0%,0%,0%);stroke-opacity:1;stroke-miterlimit:10;" d="M 150.292969 133.042969 L 129.417969 116.285156 "/>
<path style="fill:none;stroke-width:1.2;stroke-linecap:butt;stroke-linejoin:miter;stroke:rgb(0%,0%,0%);stroke-opacity:1;stroke-miterlimit:10;" d="M 129.417969 116.285156 L 104.464844 125.984375 "/>
<path style="fill:none;stroke-width:1.2;stroke-linecap:butt;stroke-linejoin:miter;stroke:rgb(0%,0%,0%);stroke-opacity:1;stroke-miterlimit:10;" d="M 129.203125 123.125 L 109.242188 130.886719 "/>
<path style="fill:none;stroke-width:1.2;stroke-linecap:butt;stroke-linejoin:miter;stroke:rgb(0%,0%,0%);stroke-opacity:1;stroke-miterlimit:10;" d="M 104.464844 125.984375 L 92.511719 119.957031 "/>
<path style="fill:none;stroke-width:1.2;stroke-linecap:butt;stroke-linejoin:miter;stroke:rgb(0%,0%,100%);stroke-opacity:1;stroke-miterlimit:10;" d="M 92.511719 119.957031 L 80.558594 113.929688 "/>
<path style="fill:none;stroke-width:1.2;stroke-linecap:butt;stroke-linejoin:miter;stroke:rgb(0%,0%,100%);stroke-opacity:1;stroke-miterlimit:10;" d="M 80.558594 113.929688 L 78.410156 100.71875 "/>
<path style="fill:none;stroke-width:1.2;stroke-linecap:butt;stroke-linejoin:miter;stroke:rgb(0%,0%,0%);stroke-opacity:1;stroke-miterlimit:10;" d="M 78.410156 100.71875 L 76.261719 87.507812 "/>
<path style=" stroke:none;fill-rule:nonzero;fill:rgb(100%,100%,100%);fill-opacity:1;" d="M 76.558594 107.429688 L 84.558594 107.429688 L 84.558594 120.429688 L 76.558594 120.429688 Z M 76.558594 107.429688 "/>
<g style="fill:rgb(0%,0%,100%);fill-opacity:1;">
  <use xlink:href="#glyph0-2" x="76.558594" y="117.331055"/>
</g>
<path style="fill:none;stroke-width:1.2;stroke-linecap:butt;stroke-linejoin:miter;stroke:rgb(0%,0%,0%);stroke-opacity:1;stroke-miterlimit:10;" d="M 167.09375 176.265625 L 180.011719 172.746094 "/>
<path style="fill:none;stroke-width:1.2;stroke-linecap:butt;stroke-linejoin:miter;stroke:rgb(0%,0%,100%);stroke-opacity:1;stroke-miterlimit:10;" d="M 180.011719 172.746094 L 192.925781 169.226562 "/>
<path style="fill:none;stroke-width:1.2;stroke-linecap:butt;stroke-linejoin:miter;stroke:rgb(0%,0%,0%);stroke-opacity:1;stroke-miterlimit:10;" d="M 165.808594 203.003906 L 167.09375 176.265625 "/>
<path style="fill:none;stroke-width:1.2;stroke-linecap:butt;stroke-linejoin:miter;stroke:rgb(0%,0%,0%);stroke-opacity:1;stroke-miterlimit:10;" d="M 172.226562 200.632812 L 173.257812 179.242188 "/>
<path style="fill:none;stroke-width:1.2;stroke-linecap:butt;stroke-linejoin:miter;stroke:rgb(0%,0%,100%);stroke-opacity:1;stroke-miterlimit:10;" d="M 192.925781 169.226562 L 200.261719 180.421875 "/>
<path style="fill:none;stroke-width:1.2;stroke-linecap:butt;stroke-linejoin:miter;stroke:rgb(0%,0%,0%);stroke-opacity:1;stroke-miterlimit:10;" d="M 200.261719 180.421875 L 207.601562 191.617188 "/>
<path style="fill:none;stroke-width:1.2;stroke-linecap:butt;stroke-linejoin:miter;stroke:rgb(0%,0%,100%);stroke-opacity:1;stroke-miterlimit:10;" d="M 192.925781 169.226562 L 197.667969 156.707031 "/>
<path style="fill:none;stroke-width:1.2;stroke-linecap:butt;stroke-linejoin:miter;stroke:rgb(0%,0%,0%);stroke-opacity:1;stroke-miterlimit:10;" d="M 197.667969 156.707031 L 202.414062 144.191406 "/>
<path style=" stroke:none;fill-rule:nonzero;fill:rgb(100%,100%,100%);fill-opacity:1;" d="M 188.925781 162.726562 L 196.925781 162.726562 L 196.925781 175.726562 L 188.925781 175.726562 Z M 188.925781 162.726562 "/>
<g style="fill:rgb(0%,0%,100%);fill-opacity:1;">
  <use xlink:href="#glyph0-2" x="188.925781" y="172.62793"/>
</g>
<path style="fill:none;stroke-width:1.2;stroke-linecap:butt;stroke-linejoin:miter;stroke:rgb(0%,0%,0%);stroke-opacity:1;stroke-miterlimit:10;" d="M 207.601562 191.617188 L 199.222656 202.054688 "/>
<path style="fill:none;stroke-width:1.2;stroke-linecap:butt;stroke-linejoin:miter;stroke:rgb(0%,0%,100%);stroke-opacity:1;stroke-miterlimit:10;" d="M 199.222656 202.054688 L 190.839844 212.492188 "/>
<path style="fill:none;stroke-width:1.2;stroke-linecap:butt;stroke-linejoin:miter;stroke:rgb(0%,0%,0%);stroke-opacity:1;stroke-miterlimit:10;" d="M 201.011719 189.761719 L 194.308594 198.109375 "/>
<path style="fill:none;stroke-width:1.2;stroke-linecap:butt;stroke-linejoin:miter;stroke:rgb(0%,0%,100%);stroke-opacity:1;stroke-miterlimit:10;" d="M 194.308594 198.109375 L 187.605469 206.460938 "/>
<path style="fill:none;stroke-width:1.2;stroke-linecap:butt;stroke-linejoin:miter;stroke:rgb(0%,0%,100%);stroke-opacity:1;stroke-miterlimit:10;" d="M 190.839844 212.492188 L 178.324219 207.75 "/>
<path style="fill:none;stroke-width:1.2;stroke-linecap:butt;stroke-linejoin:miter;stroke:rgb(0%,0%,0%);stroke-opacity:1;stroke-miterlimit:10;" d="M 178.324219 207.75 L 165.808594 203.003906 "/>
<path style=" stroke:none;fill-rule:nonzero;fill:rgb(100%,100%,100%);fill-opacity:1;" d="M 186.839844 205.992188 L 194.839844 205.992188 L 194.839844 218.992188 L 186.839844 218.992188 Z M 186.839844 205.992188 "/>
<g style="fill:rgb(0%,0%,100%);fill-opacity:1;">
  <use xlink:href="#glyph0-2" x="186.839844" y="215.893555"/>
</g>
<path style="fill:none;stroke-width:1.2;stroke-linecap:butt;stroke-linejoin:miter;stroke:rgb(0%,0%,0%);stroke-opacity:1;stroke-miterlimit:10;" d="M 202.414062 144.191406 L 228.835938 139.890625 "/>
<path style="fill:none;stroke-width:1.2;stroke-linecap:butt;stroke-linejoin:miter;stroke:rgb(0%,0%,0%);stroke-opacity:1;stroke-miterlimit:10;" d="M 204.042969 137.542969 L 225.183594 134.105469 "/>
<path style="fill:none;stroke-width:1.2;stroke-linecap:butt;stroke-linejoin:miter;stroke:rgb(0%,0%,0%);stroke-opacity:1;stroke-miterlimit:10;" d="M 185.476562 123.457031 L 202.414062 144.191406 "/>
<path style="fill:none;stroke-width:1.2;stroke-linecap:butt;stroke-linejoin:miter;stroke:rgb(0%,0%,0%);stroke-opacity:1;stroke-miterlimit:10;" d="M 228.835938 139.890625 L 238.324219 114.859375 "/>
<path style="fill:none;stroke-width:1.2;stroke-linecap:butt;stroke-linejoin:miter;stroke:rgb(0%,0%,0%);stroke-opacity:1;stroke-miterlimit:10;" d="M 238.324219 114.859375 L 221.390625 94.125 "/>
<path style="fill:none;stroke-width:1.2;stroke-linecap:butt;stroke-linejoin:miter;stroke:rgb(0%,0%,0%);stroke-opacity:1;stroke-miterlimit:10;" d="M 231.753906 116.769531 L 218.203125 100.183594 "/>
<path style="fill:none;stroke-width:1.2;stroke-linecap:butt;stroke-linejoin:miter;stroke:rgb(0%,0%,0%);stroke-opacity:1;stroke-miterlimit:10;" d="M 238.324219 114.859375 L 264.75 110.558594 "/>
<path style="fill:none;stroke-width:1.2;stroke-linecap:butt;stroke-linejoin:miter;stroke:rgb(0%,0%,0%);stroke-opacity:1;stroke-miterlimit:10;" d="M 221.390625 94.125 L 194.964844 98.421875 "/>
<path style="fill:none;stroke-width:1.2;stroke-linecap:butt;stroke-linejoin:miter;stroke:rgb(0%,0%,0%);stroke-opacity:1;stroke-miterlimit:10;" d="M 194.964844 98.421875 L 185.476562 123.457031 "/>
<path style="fill:none;stroke-width:1.2;stroke-linecap:butt;stroke-linejoin:miter;stroke:rgb(0%,0%,0%);stroke-opacity:1;stroke-miterlimit:10;" d="M 199.90625 103.160156 L 192.316406 123.1875 "/>
</g>
</svg>

<svg xmlns="http://www.w3.org/2000/svg" xmlns:xlink="http://www.w3.org/1999/xlink" width="300pt" height="300pt" viewBox="0 0 300 300"><defs><symbol overflow="visible"><path d="M.547 1.938V-7.75h5.5v9.688zm.625-.61h4.266v-8.47H1.171zm0 0"/></symbol><symbol overflow="visible" id="a"><path d="M4.328-7.28c-.78 0-1.406.296-1.875.89-.46.585-.687 1.382-.687 2.39 0 1.012.226 1.813.687 2.406.47.586 1.094.875 1.875.875.79 0 1.414-.288 1.875-.874.457-.593.688-1.394.688-2.406 0-1.008-.23-1.805-.687-2.39-.46-.594-1.086-.89-1.875-.89zm0-.892c1.125 0 2.024.383 2.703 1.14C7.708-6.28 8.048-5.27 8.048-4c0 1.262-.34 2.273-1.016 3.03C6.353-.22 5.454.157 4.33.157S2.3-.22 1.625-.97c-.668-.75-1-1.757-1-3.03 0-1.27.332-2.28 1-3.03.676-.76 1.578-1.142 2.703-1.142zm0 0"/></symbol><symbol overflow="visible" id="b"><path d="M1.078-8.016h1.47l3.546 6.704v-6.704h1.062V0H5.688L2.124-6.703V0H1.078zm0 0"/></symbol></defs><g><path fill="#fff" d="M0 0h300v300H0z"/><path d="M34.77 131.977l13.23 2.04" stroke-width="1.2" stroke="#f00" stroke-miterlimit="10" fill="none"/><path d="M48 134.016l13.23 2.04" stroke-width="1.2" stroke="#000" stroke-miterlimit="10" fill="none"/><path d="M35.73 125.754l13.23 2.035" stroke-width="1.2" stroke="#f00" stroke-miterlimit="10" fill="none"/><path d="M48.96 127.79l13.227 2.038" stroke-width="1.2" stroke="#000" stroke-miterlimit="10" fill="none"/><path d="M26.25 122.367h9v13h-9zm0 0" fill="#fff"/><use xlink:href="#a" x="26.25" y="132.269" fill="#f00"/><path d="M61.71 132.94l6.126 11.904" stroke-width="1.2" stroke="#000" stroke-miterlimit="10" fill="none"/><path d="M67.836 144.844l6.13 11.898M80.56 113.93l-9.423 9.507" stroke-width="1.2" stroke="#00f" stroke-miterlimit="10" fill="none"/><path d="M71.137 123.438l-9.426 9.503" stroke-width="1.2" stroke="#000" stroke-miterlimit="10" fill="none"/><path d="M73.965 156.742l13.21-2.148" stroke-width="1.2" stroke="#00f" stroke-miterlimit="10" fill="none"/><path d="M87.176 154.594l13.215-2.15" stroke-width="1.2" stroke="#000" stroke-miterlimit="10" fill="none"/><path d="M73.965 156.742l-6.028 11.953" stroke-width="1.2" stroke="#00f" stroke-miterlimit="10" fill="none"/><path d="M67.938 168.695l-6.028 11.953" stroke-width="1.2" stroke="#000" stroke-miterlimit="10" fill="none"/><path d="M69.965 150.242h8v13h-8zm0 0" fill="#fff"/><use xlink:href="#b" x="69.965" y="160.144" fill="#00f"/><path d="M100.39 152.445l20.876 16.758M106.422 149.207l16.7 13.41M104.465 125.984l-4.074 26.46M121.266 169.203l24.953-9.7M146.22 159.504l4.073-26.46M140.398 155.898l3.262-21.168M146.22 159.504l20.874 16.762M150.293 133.043l-20.875-16.758M129.418 116.285l-24.953 9.7M129.203 123.125l-19.96 7.762M104.465 125.984l-11.953-6.027" stroke-width="1.2" stroke="#000" stroke-miterlimit="10" fill="none"/><path d="M92.512 119.957L80.56 113.93M80.56 113.93l-2.15-13.21" stroke-width="1.2" stroke="#00f" stroke-miterlimit="10" fill="none"/><path d="M78.41 100.72l-2.148-13.212" stroke-width="1.2" stroke="#000" stroke-miterlimit="10" fill="none"/><path d="M76.56 107.43h8v13h-8zm0 0" fill="#fff"/><use xlink:href="#b" x="76.559" y="117.331" fill="#00f"/><path d="M167.094 176.266l12.918-3.52" stroke-width="1.2" stroke="#000" stroke-miterlimit="10" fill="none"/><path d="M180.012 172.746l12.914-3.52" stroke-width="1.2" stroke="#00f" stroke-miterlimit="10" fill="none"/><path d="M165.81 203.004l1.284-26.738M172.227 200.633l1.03-21.39" stroke-width="1.2" stroke="#000" stroke-miterlimit="10" fill="none"/><path d="M192.926 169.227l7.336 11.195" stroke-width="1.2" stroke="#00f" stroke-miterlimit="10" fill="none"/><path d="M200.262 180.422l7.34 11.195" stroke-width="1.2" stroke="#000" stroke-miterlimit="10" fill="none"/><path d="M192.926 169.227l4.742-12.52" stroke-width="1.2" stroke="#00f" stroke-miterlimit="10" fill="none"/><path d="M197.668 156.707l4.746-12.516" stroke-width="1.2" stroke="#000" stroke-miterlimit="10" fill="none"/><path d="M188.926 162.727h8v13h-8zm0 0" fill="#fff"/><use xlink:href="#b" x="188.926" y="172.628" fill="#00f"/><path d="M207.602 191.617l-8.38 10.438" stroke-width="1.2" stroke="#000" stroke-miterlimit="10" fill="none"/><path d="M199.223 202.055l-8.383 10.437" stroke-width="1.2" stroke="#00f" stroke-miterlimit="10" fill="none"/><path d="M201.012 189.762l-6.703 8.347" stroke-width="1.2" stroke="#000" stroke-miterlimit="10" fill="none"/><path d="M194.31 198.11l-6.705 8.35M190.84 212.492l-12.516-4.742" stroke-width="1.2" stroke="#00f" stroke-miterlimit="10" fill="none"/><path d="M178.324 207.75l-12.515-4.746" stroke-width="1.2" stroke="#000" stroke-miterlimit="10" fill="none"/><path d="M186.84 205.992h8v13h-8zm0 0" fill="#fff"/><use xlink:href="#b" x="186.84" y="215.894" fill="#00f"/><path d="M202.414 144.19l26.422-4.3M204.043 137.543l21.14-3.438M185.477 123.457l16.937 20.734M228.836 139.89l9.488-25.03M238.324 114.86L221.39 94.124M231.754 116.77l-13.55-16.586M238.324 114.86l26.426-4.3M221.39 94.125l-26.425 4.297M194.965 98.422l-9.488 25.035M199.906 103.16l-7.59 20.028" stroke-width="1.2" stroke="#000" stroke-miterlimit="10" fill="none"/></g></svg>
